src/svg/glyphs/danger-2.svg

<?xml version="1.0" encoding="UTF-8" standalone="no"?>
<!-- Generator: Adobe Illustrator 19.0.0, SVG Export Plug-In . SVG Version: 6.00 Build 0)  -->

<svg
   version="1.1"
   id="Layer_1"
   x="0px"
   y="0px"
   viewBox="0 0 110 200"
   xml:space="preserve"
   inkscape:version="1.2.2 (b0a8486541, 2022-12-01)"
   sodipodi:docname="danger-2.svg"
   width="110"
   height="200"
   xmlns:inkscape="http://www.inkscape.org/namespaces/inkscape"
   xmlns:sodipodi="http://sodipodi.sourceforge.net/DTD/sodipodi-0.dtd"
   xmlns="http://www.w3.org/2000/svg"
   xmlns:svg="http://www.w3.org/2000/svg"
   xmlns:rdf="http://www.w3.org/1999/02/22-rdf-syntax-ns#"
   xmlns:cc="http://creativecommons.org/ns#"
   xmlns:dc="http://purl.org/dc/elements/1.1/"><metadata
   id="metadata11"><rdf:RDF><cc:Work
       rdf:about=""><dc:format>image/svg+xml</dc:format><dc:type
         rdf:resource="http://purl.org/dc/dcmitype/StillImage" /><dc:title /></cc:Work></rdf:RDF></metadata><defs
   id="defs9" /><sodipodi:namedview
   pagecolor="#ffffff"
   bordercolor="#666666"
   borderopacity="1"
   objecttolerance="10"
   gridtolerance="10"
   guidetolerance="10"
   inkscape:pageopacity="0"
   inkscape:pageshadow="2"
   inkscape:window-width="2510"
   inkscape:window-height="1363"
   id="namedview7"
   showgrid="false"
   inkscape:zoom="3.5333334"
   inkscape:cx="12.735849"
   inkscape:cy="116.17924"
   inkscape:window-x="0"
   inkscape:window-y="0"
   inkscape:window-maximized="1"
   inkscape:current-layer="text5"
   inkscape:showpageshadow="2"
   inkscape:pagecheckerboard="0"
   inkscape:deskcolor="#d1d1d1"><inkscape:grid
     type="xygrid"
     id="grid3355"
     dotted="false" /></sodipodi:namedview><style
   type="text/css"
   id="style3">
	.st0{font-family:&quot;Arial Black&quot;, &quot;Arial Bold&quot;, Gadget, sans-serif;}
	.st1{font-size:75px;}
</style><g
   transform="scale(0.99124857,1.0088287)"
   style="font-style:normal;font-variant:normal;font-weight:900;font-stretch:normal;font-size:166.17274475px;line-height:100%;font-family:Arial;-inkscape-font-specification:'Arial, Heavy';text-align:center;writing-mode:lr-tb;text-anchor:middle"
   id="text5"><path
     d="m 14.1236,39.649951 35.29548,0 0,27.100438 -6.815678,54.444291 -21.826401,0 -6.653401,-54.444291 0,-27.100438 z m 1.217086,89.820909 32.942448,0 0,29.12892 -32.942448,0 0,-29.12892 z"
     id="path3484"
     inkscape:connector-curvature="0"
     style="fill:#ff0000" /><path
     d="m 61.552072,39.649951 35.295484,0 0,27.100438 -6.815683,54.444291 -21.8264,0 -6.653401,-54.444291 0,-27.100438 z m 1.217085,89.820909 32.942449,0 0,29.12892 -32.942449,0 0,-29.12892 z"
     id="path3486"
     inkscape:connector-curvature="0"
     style="fill:#ff0000" /></g><text
   transform="scale(0.79983082,1.2502644)"
   class="st0 st1"
   x="5.0010576"
   y="96.020195"
   style="font-size:97.2459px;font-family:'Arial Black', 'Arial Bold', Gadget, sans-serif"
   id="text3386" />
<text
   xml:space="preserve"
   style="font-style:normal;font-weight:normal;line-height:0%;font-family:sans-serif;letter-spacing:0px;word-spacing:0px;fill:#000000;fill-opacity:1;stroke:none;stroke-width:1px;stroke-linecap:butt;stroke-linejoin:miter;stroke-opacity:1"
   x="83.726418"
   y="71.75708"
   id="text3370"><tspan
     sodipodi:role="line"
     id="tspan3372"
     x="83.726418"
     y="71.75708"
     style="font-size:40px;line-height:1.25"> </tspan></text>
<text
   xml:space="preserve"
   style="font-style:normal;font-weight:normal;line-height:0%;font-family:sans-serif;letter-spacing:0px;word-spacing:0px;fill:#000000;fill-opacity:1;stroke:none;stroke-width:1px;stroke-linecap:butt;stroke-linejoin:miter;stroke-opacity:1"
   x="30.365566"
   y="93.86792"
   id="text3374"><tspan
     sodipodi:role="line"
     id="tspan3376"
     x="30.365566"
     y="93.86792"
     style="font-size:40px;line-height:1.25"> </tspan></text>
<flowRoot
   xml:space="preserve"
   id="flowRoot3378"
   style="font-style:normal;font-weight:normal;line-height:0.01%;font-family:sans-serif;letter-spacing:0px;word-spacing:0px;fill:#000000;fill-opacity:1;stroke:none;stroke-width:1px;stroke-linecap:butt;stroke-linejoin:miter;stroke-opacity:1"
   transform="translate(0,-50)"><flowRegion
     id="flowRegion3380"><rect
       id="rect3382"
       width="115.27122"
       height="155.66037"
       x="53.066036"
       y="38.915092" /></flowRegion><flowPara
     id="flowPara3384"
     style="font-size:40px;line-height:1.25"> </flowPara></flowRoot><text
   xml:space="preserve"
   style="font-style:normal;font-weight:normal;line-height:0%;font-family:sans-serif;letter-spacing:0px;word-spacing:0px;fill:#000000;fill-opacity:1;stroke:none;stroke-width:1px;stroke-linecap:butt;stroke-linejoin:miter;stroke-opacity:1"
   x="243.51414"
   y="80.601425"
   id="text3422"><tspan
     sodipodi:role="line"
     id="tspan3424"
     x="243.51414"
     y="80.601425"
     style="font-size:40px;line-height:1.25"> </tspan></text>
<text
   xml:space="preserve"
   style="font-style:normal;font-weight:normal;line-height:0%;font-family:sans-serif;letter-spacing:0px;word-spacing:0px;fill:#000000;fill-opacity:1;stroke:none;stroke-width:1px;stroke-linecap:butt;stroke-linejoin:miter;stroke-opacity:1"
   x="160.37737"
   y="83.844345"
   id="text3426"><tspan
     sodipodi:role="line"
     id="tspan3428"
     x="160.37737"
     y="83.844345"
     style="font-size:40px;line-height:1.25"> </tspan></text>
</svg>

<?xml version="1.0" encoding="UTF-8" standalone="no"?>
<!-- Generator: Adobe Illustrator 19.0.0, SVG Export Plug-In . SVG Version: 6.00 Build 0)  -->

<svg
   version="1.1"
   id="Layer_1"
   x="0px"
   y="0px"
   viewBox="0 0 81.999998 120"
   xml:space="preserve"
   inkscape:version="1.2.2 (b0a8486541, 2022-12-01)"
   sodipodi:docname="danger-2.svg"
   width="82"
   height="120"
   xmlns:inkscape="http://www.inkscape.org/namespaces/inkscape"
   xmlns:sodipodi="http://sodipodi.sourceforge.net/DTD/sodipodi-0.dtd"
   xmlns="http://www.w3.org/2000/svg"
   xmlns:svg="http://www.w3.org/2000/svg"
   xmlns:rdf="http://www.w3.org/1999/02/22-rdf-syntax-ns#"
   xmlns:cc="http://creativecommons.org/ns#"
   xmlns:dc="http://purl.org/dc/elements/1.1/"><metadata
   id="metadata11"><rdf:RDF><cc:Work
       rdf:about=""><dc:format>image/svg+xml</dc:format><dc:type
         rdf:resource="http://purl.org/dc/dcmitype/StillImage" /></cc:Work></rdf:RDF></metadata><defs
   id="defs9" /><sodipodi:namedview
   pagecolor="#ffffff"
   bordercolor="#666666"
   borderopacity="1"
   objecttolerance="10"
   gridtolerance="10"
   guidetolerance="10"
   inkscape:pageopacity="0"
   inkscape:pageshadow="2"
   inkscape:window-width="1870"
   inkscape:window-height="1131"
   id="namedview7"
   showgrid="false"
   inkscape:zoom="3.5333334"
   inkscape:cx="96.084904"
   inkscape:cy="42.31132"
   inkscape:window-x="1490"
   inkscape:window-y="851"
   inkscape:window-maximized="1"
   inkscape:current-layer="Layer_1"
   inkscape:showpageshadow="2"
   inkscape:pagecheckerboard="0"
   inkscape:deskcolor="#d1d1d1"><inkscape:grid
     type="xygrid"
     id="grid3355"
     dotted="false"
     originx="-13.999998"
     originy="-40.000009" /></sodipodi:namedview><style
   type="text/css"
   id="style3">
	.st0{font-family:&quot;Arial Black&quot;, &quot;Arial Bold&quot;, Gadget, sans-serif;}
	.st1{font-size:75px;}
</style><g
   transform="matrix(0.99124857,0,0,1.0088287,-13.999998,-40.000009)"
   style="font-style:normal;font-variant:normal;font-weight:900;font-stretch:normal;font-size:166.173px;line-height:100%;font-family:Arial;-inkscape-font-specification:'Arial, Heavy';text-align:center;writing-mode:lr-tb;text-anchor:middle"
   id="text5"><path
     d="M 14.1236,39.649951 H 49.41908 V 66.750389 L 42.603402,121.19468 H 20.777001 L 14.1236,66.750389 Z m 1.217086,89.820909 h 32.942448 v 29.12892 H 15.340686 Z"
     id="path3484"
     inkscape:connector-curvature="0"
     style="fill:#ff0000" /><path
     d="m 61.552072,39.649951 h 35.295484 v 27.100438 l -6.815683,54.444291 h -21.8264 L 61.552072,66.750389 Z m 1.217085,89.820909 h 32.942449 v 29.12892 H 62.769157 Z"
     id="path3486"
     inkscape:connector-curvature="0"
     style="fill:#ff0000" /></g><text
   transform="scale(0.79983082,1.2502644)"
   class="st0 st1"
   x="-12.502642"
   y="64.026955"
   style="font-size:97.2459px;font-family:'Arial Black', 'Arial Bold', Gadget, sans-serif"
   id="text3386" />
<text
   xml:space="preserve"
   style="font-style:normal;font-weight:normal;line-height:0%;font-family:sans-serif;letter-spacing:0px;word-spacing:0px;fill:#000000;fill-opacity:1;stroke:none;stroke-width:1px;stroke-linecap:butt;stroke-linejoin:miter;stroke-opacity:1"
   x="69.726418"
   y="31.757071"
   id="text3370"><tspan
     sodipodi:role="line"
     id="tspan3372"
     x="69.726418"
     y="31.757071"
     style="font-size:40px;line-height:1.25"> </tspan></text>
<text
   xml:space="preserve"
   style="font-style:normal;font-weight:normal;line-height:0%;font-family:sans-serif;letter-spacing:0px;word-spacing:0px;fill:#000000;fill-opacity:1;stroke:none;stroke-width:1px;stroke-linecap:butt;stroke-linejoin:miter;stroke-opacity:1"
   x="16.365568"
   y="53.867916"
   id="text3374"><tspan
     sodipodi:role="line"
     id="tspan3376"
     x="16.365568"
     y="53.867916"
     style="font-size:40px;line-height:1.25"> </tspan></text>


</svg>
